svg/white/auto.svg

<svg height="32" viewBox="0 0 32 32" width="32" xmlns="http://www.w3.org/2000/svg"><path d="m16 32c-8.836556 0-16-7.163444-16-16s7.163444-16 16-16 16 7.163444 16 16-7.163444 16-16 16zm8.5-12.7326165v-8.2007168l-8.5-5.0666667-8.5 5.0666667v9.9555555l8.5 4.9777778 7.0151183-4.1082-7.5381952-4.4695778 1.364953-.7555555v-7.89962437l5.7401752 3.42159457v3.6335853l-1.7871795-1.0547302-.4794872 1.9880636zm-15.08205128-7.0787466 5.51785848-3.28907641v6.56710621l-5.51785848 3.2zm4.09743588 6.3446964 5.6593089 3.3523379-3.1746935 1.8591669-5.6229323-3.2929068z" fill="#fff" fill-rule="evenodd"/></svg>

<svg xmlns="http://www.w3.org/2000/svg" width="32" height="32" viewBox="0 0 32 32">
  <path fill="#FFF" fill-rule="evenodd" d="M16,32 C7.163444,32 0,24.836556 0,16 C0,7.163444 7.163444,0 16,0 C24.836556,0 32,7.163444 32,16 C32,24.836556 24.836556,32 16,32 Z M24.5,19.2673835 L24.5,11.0666667 L16,6 L7.5,11.0666667 L7.5,21.0222222 L16,26 L23.0151183,21.8918 L15.4769231,17.4222222 L16.8418761,16.6666667 L16.8418761,8.76704233 L22.5820513,12.1886369 L22.5820513,15.8222222 L20.7948718,14.767492 L20.3153846,16.7555556 L24.5,19.2673835 Z M9.41794872,12.1886369 L14.9358072,8.89956049 L14.9358072,15.4666667 L9.41794872,18.6666667 L9.41794872,12.1886369 Z M13.5153846,18.5333333 L19.1746935,21.8856712 L16,23.7448381 L10.3770677,20.4519313 L13.5153846,18.5333333 Z"/>
</svg>
